X:2
T:WALK AROUND. -- CARRY THE NEWS TO MARY.
B:Coles pg. 26.2
Z:John B. Walsh, walsh:mat:h.ubc.ca> 5/17/02
M:2/4
L:1/8
K:A
"_ff"kv[ac] z k[ca] z | k[ac] z k[ca] z |:\
"_mf"vc>c cA | Bc Az | A2 A>F | AA2 z|
c>c cA | Bc A z | A2 A>F | A A2 z :|
|: vB2 BA | F4 | ff/f/ fc | e kf3 | BB2 A | F4 | A2 AF | AA2 z :|
L:1/16
"_f""DANCE"ue2|\
eaga faga | efec AcBA | EFGA BcdB | cABG ABcd |
eaga faga | efec AcBA | EFGA BcdB | cABG A2z2 |]\
"BREAK""_ff"ueaga fgab | "4"c'abg a2z2|]
